data/yanone-kaffeesatz.svg

<svg width="79.436" height="13.09" viewBox="0 0 79.436 13.09" xmlns="http://www.w3.org/2000/svg"><path transform="translate(0 10.29) scale(.014 -.014)" d="m207 234-46 1-155 452q-2 7 1.5 9.5t23.5 3 67 0.5l40-137q7-24 15.5-55.5t16-62.5 12-55.5 5.5-35.5q1 11 6 35.5t12.5 55.5 16 62.5 15.5 55.5l35 122q2 8 6.5 11t22.5 3.5 59 0.5zm-63-234v342h81v-326q0-8-3.5-11t-20-4-57.5-1z"/><path transform="translate(5.096 10.29) scale(.014 -.014)" d="m172-10q-28 0-53.5 4.5t-45.5 20-32 45.5-12 82 11 84.5 30 50 43 23.5 49 6q16 0 37.5-3t36.5-10q0 0 0 14t0 32.5 0 32.5q0 24-7.5 36.5t-21 18-33.5 5.5q-39 0-75-7t-58-16q-7 12-9 24.5t-2 22.5q0 7 2.5 15t8.5 12q13 8 54 17.5t98 9.5q65 0 94.5-27t29.5-95v-53q0-57-0.5-114.5t-1.5-108-4-88.5q-20-12-55-23t-84-11zm8 68q16 0 31 5t21 12q2 16 2.5 44t1 59 0.5 58q-10 5-23.5 7t-23.5 2q-16 0-29.5-3.5t-23.5-14-16-30.5-6-53q0-27 4.5-44t13.5-26.5 21-12.5 27-3z"/><path transform="translate(10.052 10.29) scale(.014 -.014)" d="m45 0v476q20 9 47 16.5t56 12.5 56 5q52 0 83-13.5t44-42.5 13-78v-360q0-8-4-11t-21-4-59-1v352q0 47-11 67t-48 20q-17 0-38-4t-37-14v-405q0-8-3.5-11t-20.5-4-57-1z"/><path transform="translate(15.4 10.29) scale(.014 -.014)" d="m184-10q-38 0-67.5 9.5t-49.5 36.5-30 78.5-10 135.5q0 137 44 198.5t122 61.5q53 0 87.5-22t51.5-78 17-157q0-140-42-201.5t-123-61.5zm2 69q22 0 38.5 15.5t26.5 57.5 10 120q0 80-8 120.5t-23 54.5-40 14q-22 0-39-15.5t-26.5-57.5-9.5-120q0-61 5-99t13.5-57.5 22.5-26 30-6.5z"/><path transform="translate(20.664 10.29) scale(.014 -.014)" d="m45 0v476q20 9 47 16.5t56 12.5 56 5q52 0 83-13.5t44-42.5 13-78v-360q0-8-4-11t-21-4-59-1v352q0 47-11 67t-48 20q-17 0-38-4t-37-14v-405q0-8-3.5-11t-20.5-4-57-1z"/><path transform="translate(26.012 10.29) scale(.014 -.014)" d="m189-10q-34 0-63.5 9.5t-51 34.5-33 71-11.5 119q0 94 15 151t40 86 57 39 65 10q63 0 95-40t32-121q0-33-2.5-68t-9.5-62q-34-7-76-10t-80-4.5-62.5-1.5-24.5 0l1 66t19-0.5 46.5 0 56 3 48.5 8.5q3 14 4 30t1 30q-1 54-12.5 76.5t-44.5 22.5q-17 0-32.5-9.5t-27.5-33-18.5-64.5-6.5-105q0-47 5.5-78t17-48 29-24.5 42.5-7.5q30 0 59.5 8t53.5 23q5-12 6.5-27.5t1.5-27.5q0-15-19-28t-50.5-20-69.5-7z"/><path transform="translate(33.264 10.29) scale(.014 -.014)" d="m334-2q-14 0-28 1t-29 2q-10 58-21.5 106.5t-24 87.5-29 69.5-37.5 53.5q-13 13-28.5 21t-30.5 12v14l177 330q14 4 28 5t24 1q45 0 33-24l-161-279q60-45 100-140.5t60-239.5q1-11-5.5-15.5t-27.5-4.5zm-292 2v684q0 8 3.5 11t20.5 4 58 1v-684q0-8-3-11t-20.5-4-58.5-1z"/><path transform="translate(38.71 10.29) scale(.014 -.014)" d="m172-10q-28 0-53.5 4.5t-45.5 20-32 45.5-12 82 11 84.5 30 50 43 23.5 49 6q16 0 37.5-3t36.5-10q0 0 0 14t0 32.5 0 32.5q0 24-7.5 36.5t-21 18-33.5 5.5q-39 0-75-7t-58-16q-7 12-9 24.5t-2 22.5q0 7 2.5 15t8.5 12q13 8 54 17.5t98 9.5q65 0 94.5-27t29.5-95v-53q0-57-0.5-114.5t-1.5-108-4-88.5q-20-12-55-23t-84-11zm8 68q16 0 31 5t21 12q2 16 2.5 44t1 59 0.5 58q-10 5-23.5 7t-23.5 2q-16 0-29.5-3.5t-23.5-14-16-30.5-6-53q0-27 4.5-44t13.5-26.5 21-12.5 27-3z"/><path transform="translate(43.666 10.29) scale(.014 -.014)" d="m81 0v431h-69q0 33 1 47t5.5 18 14.5 4h48v61q0 58 15.5 93t40.5 53.5 54.5 25 57.5 6.5q46 0 69.5-11t23.5-30q0-10-2.5-22t-6.5-23q-18 8-36 10t-35 2q-20 0-37.5-3t-32-13.5-22.5-29.5-8-52v-67h90q0-32-1-46.5t-4.5-18.5-11.5-4h-73v-415q0-1-2.5-8.5t-13.5-7.5z"/><path transform="translate(47.236 10.29) scale(.014 -.014)" d="m81 0v431h-69q0 33 1 47t5.5 18 14.5 4h48v61q0 58 15.5 93t40.5 53.5 54.5 25 57.5 6.5q46 0 69.5-11t23.5-30q0-10-2.5-22t-6.5-23q-18 8-36 10t-35 2q-20 0-37.5-3t-32-13.5-22.5-29.5-8-52v-67h90q0-32-1-46.5t-4.5-18.5-11.5-4h-73v-415q0-1-2.5-8.5t-13.5-7.5z"/><path transform="translate(50.806 10.29) scale(.014 -.014)" d="m189-10q-34 0-63.5 9.5t-51 34.5-33 71-11.5 119q0 94 15 151t40 86 57 39 65 10q63 0 95-40t32-121q0-33-2.5-68t-9.5-62q-34-7-76-10t-80-4.5-62.5-1.5-24.5 0l1 66t19-0.5 46.5 0 56 3 48.5 8.5q3 14 4 30t1 30q-1 54-12.5 76.5t-44.5 22.5q-17 0-32.5-9.5t-27.5-33-18.5-64.5-6.5-105q0-47 5.5-78t17-48 29-24.5 42.5-7.5q30 0 59.5 8t53.5 23q5-12 6.5-27.5t1.5-27.5q0-15-19-28t-50.5-20-69.5-7z"/><path transform="translate(55.846 10.29) scale(.014 -.014)" d="m189-10q-34 0-63.5 9.5t-51 34.5-33 71-11.5 119q0 94 15 151t40 86 57 39 65 10q63 0 95-40t32-121q0-33-2.5-68t-9.5-62q-34-7-76-10t-80-4.5-62.5-1.5-24.5 0l1 66t19-0.5 46.5 0 56 3 48.5 8.5q3 14 4 30t1 30q-1 54-12.5 76.5t-44.5 22.5q-17 0-32.5-9.5t-27.5-33-18.5-64.5-6.5-105q0-47 5.5-78t17-48 29-24.5 42.5-7.5q30 0 59.5 8t53.5 23q5-12 6.5-27.5t1.5-27.5q0-15-19-28t-50.5-20-69.5-7z"/><path transform="translate(60.886 10.29) scale(.014 -.014)" d="m152-10q-53 0-87.5 12.5t-34.5 38.5q0 9 3 21.5t11 25.5q22-13 46.5-19t53.5-6q38 0 59.5 15.5t21.5 46.5q0 20-8.5 39t-31.5 39l-97 83q-34 28-45.5 54.5t-11.5 51.5q0 35 17.5 61.5t54 41.5 91.5 15q52 0 78.5-10t37-22.5 10.5-23.5q0-21-18-41-22 14-46 20t-52 6q-36 0-57.5-12.5t-21.5-35.5q0-13 7.5-27t32.5-35l93-75q33-31 46-59t13-66q0-66-44-102.5t-121-36.5z"/><path transform="translate(65.716 10.29) scale(.014 -.014)" d="m172-10q-28 0-53.5 4.5t-45.5 20-32 45.5-12 82 11 84.5 30 50 43 23.5 49 6q16 0 37.5-3t36.5-10q0 0 0 14t0 32.5 0 32.5q0 24-7.5 36.5t-21 18-33.5 5.5q-39 0-75-7t-58-16q-7 12-9 24.5t-2 22.5q0 7 2.5 15t8.5 12q13 8 54 17.5t98 9.5q65 0 94.5-27t29.5-95v-53q0-57-0.5-114.5t-1.5-108-4-88.5q-20-12-55-23t-84-11zm8 68q16 0 31 5t21 12q2 16 2.5 44t1 59 0.5 58q-10 5-23.5 7t-23.5 2q-16 0-29.5-3.5t-23.5-14-16-30.5-6-53q0-27 4.5-44t13.5-26.5 21-12.5 27-3z"/><path transform="translate(70.672 10.29) scale(.014 -.014)" d="m182-10q-42 0-62.5 18.5t-26.5 52-6 78.5v291h-68q0 32 0.5 46.5t4.5 19 12 4.5h51v152q0 15 6.5 20.5t24 6.5 50.5 1v-180h102q0-31-0.5-46t-4-19.5-11.5-4.5h-86v-291q0-21 1.5-39.5t9-29 25.5-10.5q17 0 30 3.5t28 11.5q2-8 4-18t2-23q0-18-13.5-27.5t-33-13-39.5-3.5z"/><path transform="translate(74.746 10.29) scale(.014 -.014)" d="m34 0t-6.5 9.5-6.5 30.5q0 9 1.5 16t4.5 15l195 360h-103q-28 0-51.5-1t-39.5-3q-2 12-2.5 22t-0.5 16q0 18 6 26.5t20 8.5h254t4.5-6 4.5-19q0-6-2-15.5t-8-24.5l-188-360h88q42 0 66 3.5t39 7.5q2-7 2.5-18t0.5-18q-1-25-6.5-37.5t-25.5-12.5z"/></svg>

<?xml version="1.0" encoding="utf-8" ?>
<svg baseProfile="tiny" height="100%" version="1.2" width="100%" xmlns="http://www.w3.org/2000/svg" xmlns:ev="http://www.w3.org/2001/xml-events" xmlns:xlink="http://www.w3.org/1999/xlink"><defs /><g><path d="M207 234 161 235 6 687Q4 694 7.5 696.5Q11 699 31.0 699.5Q51 700 98 700L138 563Q145 539 153.5 507.5Q162 476 169.5 445.0Q177 414 181.5 389.5Q186 365 187 354Q188 365 193.0 389.5Q198 414 205.5 445.0Q213 476 221.5 507.5Q230 539 237 563L272 685Q274 693 278.5 696.0Q283 699 301.0 699.5Q319 700 360 700ZM144 0V342H225V16Q225 8 221.5 5.0Q218 2 201.5 1.0Q185 0 144 0Z" transform="translate(0.0, 72) scale(0.072, -0.072)" /><path d="M172 -10Q144 -10 118.5 -5.5Q93 -1 73.0 14.5Q53 30 41.0 60.0Q29 90 29 142Q29 194 40.0 226.5Q51 259 70.0 276.5Q89 294 113.0 300.0Q137 306 162 306Q178 306 199.5 303.0Q221 300 236 293Q236 293 236.0 307.0Q236 321 236.0 339.5Q236 358 236 372Q236 396 228.5 408.5Q221 421 207.5 426.5Q194 432 174 432Q135 432 99.0 425.0Q63 418 41 409Q34 421 32.0 433.5Q30 446 30 456Q30 463 32.5 471.0Q35 479 41 483Q54 491 95.0 500.5Q136 510 193 510Q258 510 287.5 483.0Q317 456 317 388V335Q317 278 316.5 220.5Q316 163 315.0 112.5Q314 62 311 24Q291 12 256.0 1.0Q221 -10 172 -10ZM180 58Q196 58 211.0 63.0Q226 68 232 75Q234 91 234.5 119.0Q235 147 235.5 178.0Q236 209 236 236Q226 241 212.5 243.0Q199 245 189 245Q173 245 159.5 241.5Q146 238 136.0 227.5Q126 217 120.0 197.0Q114 177 114 144Q114 117 118.5 100.0Q123 83 132.0 73.5Q141 64 153.0 61.0Q165 58 180 58Z" transform="translate(26.208, 72) scale(0.072, -0.072)" /><path d="M45 0V476Q65 485 92.0 492.5Q119 500 148.0 505.0Q177 510 204 510Q256 510 287.0 496.5Q318 483 331.0 454.0Q344 425 344 376V16Q344 8 340.0 5.0Q336 2 319.0 1.0Q302 0 260 0V352Q260 399 249.0 419.0Q238 439 201 439Q184 439 163.0 435.0Q142 431 126 421V16Q126 8 122.5 5.0Q119 2 102.0 1.0Q85 0 45 0Z" transform="translate(51.696, 72) scale(0.072, -0.072)" /><path d="M184 -10Q146 -10 116.5 -0.5Q87 9 67.0 36.0Q47 63 37.0 114.5Q27 166 27 250Q27 387 71.0 448.5Q115 510 193 510Q246 510 280.5 488.0Q315 466 332.0 410.0Q349 354 349 253Q349 113 307.0 51.5Q265 -10 184 -10ZM186 59Q208 59 224.5 74.5Q241 90 251.0 132.0Q261 174 261 252Q261 332 253.0 372.5Q245 413 230.0 427.0Q215 441 190 441Q168 441 151.0 425.5Q134 410 124.5 368.0Q115 326 115 248Q115 187 120.0 149.0Q125 111 133.5 91.5Q142 72 156.0 65.5Q170 59 186 59Z" transform="translate(79.19999999999999, 72) scale(0.072, -0.072)" /><path d="M45 0V476Q65 485 92.0 492.5Q119 500 148.0 505.0Q177 510 204 510Q256 510 287.0 496.5Q318 483 331.0 454.0Q344 425 344 376V16Q344 8 340.0 5.0Q336 2 319.0 1.0Q302 0 260 0V352Q260 399 249.0 419.0Q238 439 201 439Q184 439 163.0 435.0Q142 431 126 421V16Q126 8 122.5 5.0Q119 2 102.0 1.0Q85 0 45 0Z" transform="translate(106.27199999999999, 72) scale(0.072, -0.072)" /><path d="M189 -10Q155 -10 125.5 -0.5Q96 9 74.5 34.0Q53 59 41.5 105.0Q30 151 30 224Q30 318 45.0 375.0Q60 432 85.0 461.0Q110 490 142.0 500.0Q174 510 207 510Q270 510 302.0 470.0Q334 430 334 349Q334 316 331.5 281.0Q329 246 322 219Q288 212 246.0 209.0Q204 206 166.0 204.5Q128 203 103.5 203.0Q79 203 79 203L80 269Q80 269 99.0 268.5Q118 268 145.5 268.5Q173 269 201.5 271.5Q230 274 250 280Q253 294 254.0 310.0Q255 326 255 340Q254 394 242.5 416.5Q231 439 198 439Q181 439 165.5 429.5Q150 420 138.0 396.5Q126 373 119.5 332.0Q113 291 113 227Q113 180 118.5 149.0Q124 118 135.5 101.0Q147 84 164.5 76.5Q182 69 207 69Q237 69 266.5 77.0Q296 85 320 100Q325 88 326.5 72.5Q328 57 328 45Q328 30 309.0 17.0Q290 4 258.5 -3.0Q227 -10 189 -10Z" transform="translate(133.77599999999998, 72) scale(0.072, -0.072)" /><path d="M334 -2Q320 -2 306.0 -1.0Q292 0 277 1Q267 59 255.5 107.5Q244 156 231.5 195.0Q219 234 202.5 264.5Q186 295 165 318Q152 331 136.5 339.0Q121 347 106 351V365L283 695Q297 699 311.0 700.0Q325 701 335 701Q380 701 368 677L207 398Q267 353 307.0 257.5Q347 162 367 18Q368 7 361.5 2.5Q355 -2 334 -2ZM42 0V684Q42 692 45.5 695.0Q49 698 66.0 699.0Q83 700 124 700V16Q124 8 121.0 5.0Q118 2 100.5 1.0Q83 0 42 0Z" transform="translate(171.07199999999997, 72) scale(0.072, -0.072)" /><path d="M172 -10Q144 -10 118.5 -5.5Q93 -1 73.0 14.5Q53 30 41.0 60.0Q29 90 29 142Q29 194 40.0 226.5Q51 259 70.0 276.5Q89 294 113.0 300.0Q137 306 162 306Q178 306 199.5 303.0Q221 300 236 293Q236 293 236.0 307.0Q236 321 236.0 339.5Q236 358 236 372Q236 396 228.5 408.5Q221 421 207.5 426.5Q194 432 174 432Q135 432 99.0 425.0Q63 418 41 409Q34 421 32.0 433.5Q30 446 30 456Q30 463 32.5 471.0Q35 479 41 483Q54 491 95.0 500.5Q136 510 193 510Q258 510 287.5 483.0Q317 456 317 388V335Q317 278 316.5 220.5Q316 163 315.0 112.5Q314 62 311 24Q291 12 256.0 1.0Q221 -10 172 -10ZM180 58Q196 58 211.0 63.0Q226 68 232 75Q234 91 234.5 119.0Q235 147 235.5 178.0Q236 209 236 236Q226 241 212.5 243.0Q199 245 189 245Q173 245 159.5 241.5Q146 238 136.0 227.5Q126 217 120.0 197.0Q114 177 114 144Q114 117 118.5 100.0Q123 83 132.0 73.5Q141 64 153.0 61.0Q165 58 180 58Z" transform="translate(199.07999999999998, 72) scale(0.072, -0.072)" /><path d="M81 0V431H12Q12 464 13.0 478.0Q14 492 18.5 496.0Q23 500 33 500H81V561Q81 619 96.5 654.0Q112 689 137.0 707.5Q162 726 191.5 732.5Q221 739 249 739Q295 739 318.5 728.0Q342 717 342 698Q342 688 339.5 676.0Q337 664 333 653Q315 661 297.0 663.0Q279 665 262 665Q242 665 224.5 662.0Q207 659 192.5 648.5Q178 638 170.0 619.0Q162 600 162 567V500H252Q252 468 251.0 453.5Q250 439 246.5 435.0Q243 431 235 431H162V16Q162 15 159.5 7.5Q157 0 146 0Z" transform="translate(224.56799999999998, 72) scale(0.072, -0.072)" /><path d="M81 0V431H12Q12 464 13.0 478.0Q14 492 18.5 496.0Q23 500 33 500H81V561Q81 619 96.5 654.0Q112 689 137.0 707.5Q162 726 191.5 732.5Q221 739 249 739Q295 739 318.5 728.0Q342 717 342 698Q342 688 339.5 676.0Q337 664 333 653Q315 661 297.0 663.0Q279 665 262 665Q242 665 224.5 662.0Q207 659 192.5 648.5Q178 638 170.0 619.0Q162 600 162 567V500H252Q252 468 251.0 453.5Q250 439 246.5 435.0Q243 431 235 431H162V16Q162 15 159.5 7.5Q157 0 146 0Z" transform="translate(242.928, 72) scale(0.072, -0.072)" /><path d="M189 -10Q155 -10 125.5 -0.5Q96 9 74.5 34.0Q53 59 41.5 105.0Q30 151 30 224Q30 318 45.0 375.0Q60 432 85.0 461.0Q110 490 142.0 500.0Q174 510 207 510Q270 510 302.0 470.0Q334 430 334 349Q334 316 331.5 281.0Q329 246 322 219Q288 212 246.0 209.0Q204 206 166.0 204.5Q128 203 103.5 203.0Q79 203 79 203L80 269Q80 269 99.0 268.5Q118 268 145.5 268.5Q173 269 201.5 271.5Q230 274 250 280Q253 294 254.0 310.0Q255 326 255 340Q254 394 242.5 416.5Q231 439 198 439Q181 439 165.5 429.5Q150 420 138.0 396.5Q126 373 119.5 332.0Q113 291 113 227Q113 180 118.5 149.0Q124 118 135.5 101.0Q147 84 164.5 76.5Q182 69 207 69Q237 69 266.5 77.0Q296 85 320 100Q325 88 326.5 72.5Q328 57 328 45Q328 30 309.0 17.0Q290 4 258.5 -3.0Q227 -10 189 -10Z" transform="translate(261.288, 72) scale(0.072, -0.072)" /><path d="M189 -10Q155 -10 125.5 -0.5Q96 9 74.5 34.0Q53 59 41.5 105.0Q30 151 30 224Q30 318 45.0 375.0Q60 432 85.0 461.0Q110 490 142.0 500.0Q174 510 207 510Q270 510 302.0 470.0Q334 430 334 349Q334 316 331.5 281.0Q329 246 322 219Q288 212 246.0 209.0Q204 206 166.0 204.5Q128 203 103.5 203.0Q79 203 79 203L80 269Q80 269 99.0 268.5Q118 268 145.5 268.5Q173 269 201.5 271.5Q230 274 250 280Q253 294 254.0 310.0Q255 326 255 340Q254 394 242.5 416.5Q231 439 198 439Q181 439 165.5 429.5Q150 420 138.0 396.5Q126 373 119.5 332.0Q113 291 113 227Q113 180 118.5 149.0Q124 118 135.5 101.0Q147 84 164.5 76.5Q182 69 207 69Q237 69 266.5 77.0Q296 85 320 100Q325 88 326.5 72.5Q328 57 328 45Q328 30 309.0 17.0Q290 4 258.5 -3.0Q227 -10 189 -10Z" transform="translate(287.208, 72) scale(0.072, -0.072)" /><path d="M152 -10Q99 -10 64.5 2.5Q30 15 30 41Q30 50 33.0 62.5Q36 75 44 88Q66 75 90.5 69.0Q115 63 144 63Q182 63 203.5 78.5Q225 94 225 125Q225 145 216.5 164.0Q208 183 185 203L88 286Q54 314 42.5 340.5Q31 367 31 392Q31 427 48.5 453.5Q66 480 102.5 495.0Q139 510 194 510Q246 510 272.5 500.0Q299 490 309.5 477.5Q320 465 320 454Q320 433 302 413Q280 427 256.0 433.0Q232 439 204 439Q168 439 146.5 426.5Q125 414 125 391Q125 378 132.5 364.0Q140 350 165 329L258 254Q291 223 304.0 195.0Q317 167 317 129Q317 63 273.0 26.5Q229 -10 152 -10Z" transform="translate(313.12800000000004, 72) scale(0.072, -0.072)" /><path d="M172 -10Q144 -10 118.5 -5.5Q93 -1 73.0 14.5Q53 30 41.0 60.0Q29 90 29 142Q29 194 40.0 226.5Q51 259 70.0 276.5Q89 294 113.0 300.0Q137 306 162 306Q178 306 199.5 303.0Q221 300 236 293Q236 293 236.0 307.0Q236 321 236.0 339.5Q236 358 236 372Q236 396 228.5 408.5Q221 421 207.5 426.5Q194 432 174 432Q135 432 99.0 425.0Q63 418 41 409Q34 421 32.0 433.5Q30 446 30 456Q30 463 32.5 471.0Q35 479 41 483Q54 491 95.0 500.5Q136 510 193 510Q258 510 287.5 483.0Q317 456 317 388V335Q317 278 316.5 220.5Q316 163 315.0 112.5Q314 62 311 24Q291 12 256.0 1.0Q221 -10 172 -10ZM180 58Q196 58 211.0 63.0Q226 68 232 75Q234 91 234.5 119.0Q235 147 235.5 178.0Q236 209 236 236Q226 241 212.5 243.0Q199 245 189 245Q173 245 159.5 241.5Q146 238 136.0 227.5Q126 217 120.0 197.0Q114 177 114 144Q114 117 118.5 100.0Q123 83 132.0 73.5Q141 64 153.0 61.0Q165 58 180 58Z" transform="translate(337.968, 72) scale(0.072, -0.072)" /><path d="M182 -10Q140 -10 119.5 8.5Q99 27 93.0 60.5Q87 94 87 139V430H19Q19 462 19.5 476.5Q20 491 24.0 495.5Q28 500 36 500H87V652Q87 667 93.5 672.5Q100 678 117.5 679.0Q135 680 168 680V500H270Q270 469 269.5 454.0Q269 439 265.5 434.5Q262 430 254 430H168V139Q168 118 169.5 99.5Q171 81 178.5 70.5Q186 60 204 60Q221 60 234.0 63.5Q247 67 262 75Q264 67 266.0 57.0Q268 47 268 34Q268 16 254.5 6.5Q241 -3 221.5 -6.5Q202 -10 182 -10Z" transform="translate(363.456, 72) scale(0.072, -0.072)" /><path d="M34 0Q34 0 27.5 9.5Q21 19 21 40Q21 49 22.5 56.0Q24 63 27 71L222 431H119Q91 431 67.5 430.0Q44 429 28 427Q26 439 25.5 449.0Q25 459 25 465Q25 483 31.0 491.5Q37 500 51 500H305Q305 500 309.5 494.0Q314 488 314 475Q314 469 312.0 459.5Q310 450 304 435L116 75H204Q246 75 270.0 78.5Q294 82 309 86Q311 79 311.5 68.0Q312 57 312 50Q311 25 305.5 12.5Q300 0 280 0Z" transform="translate(384.408, 72) scale(0.072, -0.072)" /></g></svg>
